X:7
T:Cork and Sweet Munster
B:Joyce, P. W.; "Old Irish Folk Music and Songs"
R:song
H:I have known this tune from my earliest days.  There was a song to it of
H:which I remember but one verse:
W:I travelled this country round and round,
W:From city to city and seaport town;
W:But of all the fine places that ever I did see,
W:Cork and sweet Munster, ochone, for me.
L:1/8
M:C
K:F
F/G/|A2 AA AGFG|{A}f2 e2 f2 ef|g2 fe dcAc|dfed c2 AB|
c2 d3/2c/ c2 Ac|dfe3/2g/ Hf4|A2 AA A/c3/2 (3BGF|G2 F2 F3|]
